X:1
T:Title
%%score { ( 1 3 ) | 2 }
L:1/8
M:4/4
K:Ab
V:1 treble nm="Grand Piano"
V:3 treble 
V:2 bass 
V:1
 z4 z2[Q:1/4=100] [G,E]2 | [G,E]2 [A,EF]2 [B,EG]2 [CEA]2 | [DEB]3 [CEA] [B,EG]2 [G,E]2 | %3
 [A,EF]2 [DEG]2 [CEA]2 [Ec]2 |[M:3/4] B6 |[M:1/4] e2 |[M:4/4] c2 [EA]2 E2 F2 | A3 G d2 F2 | %8
 E2 A2 A2 G2 |[M:5/8] [CA]-[CA]- [CA]3 |[M:3/8] AG>A |[M:4/4] B6 z2 | A6 z2 | A2 B2 c2 [Fd]2 | %14
[M:3/4] B6 |[M:1/4] e2 |[M:4/4] c3 B A2 E2 |[M:9/8] [EF]2 [DG]- [DG] [EA]2- [EA] F2 | %18
[M:4/4] E3 A A2 B2 |[M:3/4] [CA]6 |] %20
V:2
 z4 z2 E,2 | C,2 C,2 B,,2 A,,2 | G,,3 A,, E,2 D,2 | C,2 B,,2 A,,2 [A,,A,]2 |[M:3/4] [E,G,E]6 | %5
[M:1/4] [G,B,E]2 |[M:4/4] [A,E]2 [C,A,]2 [E,G,]2 [E,A,E]2 | [E,B,D]3 [E,B,D] [F,B,D]2 [F,G,D]2 | %8
 [E,A,C]2 [E,CE]2 [E,B,D]2 [E,B,D]2 |[M:5/8] [A,,A,]-[A,,A,]- [A,,A,]3 |[M:3/8] z3 | %11
[M:4/4] z [E,G,] [E,G,]>[E,G,] .[E,G,]2 z2 | z [A,,E,] [A,,E,]>[A,,F,] [A,,E,]2 [C,A,]2 | %13
 [F,A,C]2 [E,G,E]2 [A,E]2 [D,A,]2 |[M:3/4] [E,G,E]6 |[M:1/4] [G,B,E]2 | %16
[M:4/4] [A,E]3 [E,G,D] [F,A,C]2 [C,A,]2 | %17
[M:9/8] [D,A,]2 [B,,B,]- [B,,B,] [C,A,]2- [C,A,] [D,A,B,]2 | %18
[M:4/4] [E,A,C]3 [E,CE] [E,B,D]2 [E,G,D]2 |[M:3/4] [A,,A,]6 |] %20
V:3
 x8 | x8 | x8 | x8 |[M:3/4] x6 |[M:1/4] x2 |[M:4/4] x8 | x8 | x8 |[M:5/8] x5 |[M:3/8] x3 | %11
[M:4/4] z E E>E Ed F>G | z C C>D C2 [EA]2 | x8 |[M:3/4] x6 |[M:1/4] x2 |[M:4/4] x8 |[M:9/8] x9 | %18
[M:4/4] x8 |[M:3/4] x6 |] %20

